img/financial-freedom.svg

<svg width="160" height="164" viewBox="0 0 160 164" fill="none" xmlns="http://www.w3.org/2000/svg">
<rect width="160" height="164" rx="45" fill="#093F68"/>
<path d="M113.262 62.7398C110.035 58.7539 103.228 58.5355 101.389 52.5949C99.5501 46.6543 100.083 44.1372 100.083 44.1372H59.9166C59.9166 44.1372 60.4607 46.6488 58.6107 52.5949C56.7607 58.541 49.9647 58.7485 46.7381 62.7398C43.8815 66.278 43.8815 71.5033 43.8815 77.0399V113.781C43.8815 119.727 46.6347 125.979 53.175 125.979H106.825C113.354 125.979 116.119 119.727 116.119 113.781V77.0399C116.119 71.5033 116.119 66.278 113.262 62.7398Z" fill="#080C20"/>
<path fill-rule="evenodd" clip-rule="evenodd" d="M53.175 126.525H106.825C113.621 126.525 116.663 120.12 116.717 113.787V77.0453C116.717 71.4105 116.717 66.0869 113.741 62.4013C112.366 60.7061 110.39 59.6639 108.478 58.6554L108.468 58.6502C105.628 57.165 102.967 55.7618 101.939 52.4366C100.181 46.7417 100.649 44.2464 100.649 44.2464C100.683 44.084 100.64 43.9153 100.535 43.7877C100.432 43.6609 100.279 43.5868 100.116 43.5857H59.9493C59.784 43.5823 59.6261 43.6546 59.5203 43.7821C59.4144 43.9095 59.372 44.0784 59.4052 44.2409L59.4055 44.2427C59.4199 44.3253 59.8549 46.806 58.1156 52.4311C57.0654 55.7563 54.4047 57.1596 51.5862 58.6447C51.541 58.6688 51.4958 58.6929 51.4505 58.717C49.5778 59.7148 47.6578 60.7378 46.3137 62.3958C43.3374 66.0814 43.3374 71.405 43.3374 77.0399V113.781C43.3374 120.12 46.379 126.525 53.175 126.525ZM59.1331 52.7533C60.4879 48.3742 60.5804 45.8025 60.5206 44.6832H99.5121C99.4522 45.8025 99.5447 48.3852 100.9 52.7533C102.063 56.5123 105.046 58.0853 107.934 59.6075L107.94 59.6112C109.839 60.6104 111.64 61.5604 112.87 63.0838C115.591 66.4691 115.591 71.5798 115.591 77.0399V113.781C115.591 119.58 112.886 125.433 106.841 125.433H53.1913C47.1625 125.433 44.4419 119.58 44.4419 113.781V77.0399C44.4419 71.6016 44.4419 66.4691 47.1625 63.0838C48.3922 61.5604 50.1932 60.6104 52.0922 59.6112L52.0991 59.6075C54.9862 58.0853 57.9696 56.5123 59.1331 52.7533Z" fill="#093F68"/>
<path fill-rule="evenodd" clip-rule="evenodd" d="M53.175 123.249H106.825C113.129 123.249 113.392 114.983 113.429 113.805C113.43 113.788 113.43 113.773 113.431 113.759V77.018C113.431 72.0002 113.431 67.2444 111.183 64.4598C110.231 63.2858 108.626 62.4395 106.923 61.544L106.807 61.4822C103.857 59.9048 100.234 57.9679 98.821 53.403C98.1654 51.0641 97.7121 48.6728 97.4662 46.2557C97.433 45.98 97.1988 45.7732 96.9221 45.7752H63.1324C62.8556 45.7732 62.6214 45.98 62.5882 46.2557C62.3364 48.6808 61.8758 51.0795 61.2116 53.4248C59.7806 58.0496 56.0806 59.9988 53.1043 61.5659L53.1016 61.5673C51.405 62.4622 49.801 63.3083 48.8493 64.4816C46.6021 67.2444 46.6021 72.0002 46.6021 77.0399V113.781C46.6021 114.747 46.7816 123.249 53.175 123.249ZM62.2509 53.7252C62.8875 51.4808 63.3352 49.1868 63.5894 46.8672H96.4106C96.6648 49.1868 97.1126 51.4808 97.7491 53.7252C99.3162 58.7812 103.234 60.8725 106.39 62.5105C107.984 63.3513 109.491 64.1485 110.302 65.1477C112.31 67.6321 112.31 72.2022 112.31 77.0399V113.781C112.31 114.638 112.157 122.157 106.825 122.157H53.175C47.8427 122.157 47.6903 114.638 47.6903 113.781V77.0399C47.6903 72.2022 47.6903 67.6321 49.6981 65.1477C50.5088 64.1485 52.016 63.3513 53.6157 62.5105C53.6563 62.4887 53.6971 62.4669 53.7379 62.4451C56.8668 60.7702 60.704 58.7161 62.2509 53.7252Z" fill="#093F68"/>
<path d="M56.4016 38.8081H103.598C105.924 38.8081 107.81 40.7002 107.81 43.0342V45.7643C107.81 46.3884 107.563 46.987 107.123 47.4283C106.683 47.8697 106.087 48.1176 105.465 48.1176H54.5353C53.9133 48.1176 53.3168 47.8697 52.877 47.4283C52.4372 46.987 52.1902 46.3884 52.1902 45.7643V43.0342C52.1902 40.7002 54.0757 38.8081 56.4016 38.8081Z" fill="#080C20"/>
<path fill-rule="evenodd" clip-rule="evenodd" d="M54.5353 48.68H105.465C107.06 48.68 108.354 47.3819 108.354 45.7807V43.0506C108.351 40.4163 106.224 38.2815 103.598 38.2785H56.4016C53.7764 38.2815 51.649 40.4163 51.646 43.0506V45.7807C51.646 47.3819 52.9396 48.68 54.5353 48.68ZM53.8084 40.432C54.4962 39.7418 55.429 39.3541 56.4016 39.3541H103.598C105.624 39.3541 107.266 41.0018 107.266 43.0342V45.7643C107.266 46.7624 106.459 47.5716 105.465 47.5716H54.5353C53.5406 47.5716 52.7343 46.7624 52.7343 45.7643V43.0342C52.7343 42.0582 53.1206 41.1221 53.8084 40.432Z" fill="#093F68"/>
<rect x="55.3678" y="83.9961" width="32.4022" height="7.57319" rx="3.7866" fill="#3EE9E5"/>
<path fill-rule="evenodd" clip-rule="evenodd" d="M57.5443 92.1153H85.5935C87.0961 92.1153 88.3141 90.893 88.3141 89.3852V86.1801C88.3141 84.6724 87.0961 83.4501 85.5935 83.4501H57.5443C56.0417 83.4501 54.8237 84.6724 54.8237 86.1801V89.3852C54.8237 90.893 56.0417 92.1153 57.5443 92.1153ZM55.9119 86.1801C55.9119 85.2755 56.6427 84.5421 57.5443 84.5421H85.5935C86.495 84.5421 87.2259 85.2755 87.2259 86.1801V89.3852C87.2259 90.2899 86.495 91.0233 85.5935 91.0233H57.5443C56.6427 91.0233 55.9119 90.2899 55.9119 89.3852V86.1801Z" fill="#093F68"/>
<rect x="58.6924" y="91.5693" width="32.4022" height="7.57319" rx="3.7866" fill="#3EE9E5"/>
<path fill-rule="evenodd" clip-rule="evenodd" d="M60.8688 99.6994H88.9181C89.6396 99.6994 90.3316 99.4118 90.8418 98.8998C91.352 98.3878 91.6387 97.6934 91.6387 96.9693V93.7588C91.6387 92.251 90.4206 91.0287 88.9181 91.0287H60.8688C59.3663 91.0287 58.1482 92.251 58.1482 93.7588V96.9693C58.1482 98.4771 59.3663 99.6994 60.8688 99.6994ZM59.2365 93.7588C59.2365 92.8541 59.9673 92.1207 60.8688 92.1207H88.9181C89.8196 92.1207 90.5504 92.8541 90.5504 93.7588V96.9693C90.5504 97.874 89.8196 98.6074 88.9181 98.6074H60.8688C59.9673 98.6074 59.2365 97.874 59.2365 96.9693V93.7588Z" fill="#093F68"/>
<rect x="86.7634" y="106.737" width="32.4022" height="7.57319" rx="3.7866" transform="rotate(-180 86.7634 106.737)" fill="#3EE9E5"/>
<path fill-rule="evenodd" clip-rule="evenodd" d="M56.5377 107.283H84.5869C85.3104 107.284 86.004 106.994 86.5145 106.48C87.025 105.966 87.3104 105.268 87.3075 104.543V101.337C87.3075 99.8297 86.0895 98.6074 84.5869 98.6074H56.5377C55.0351 98.6074 53.8171 99.8297 53.8171 101.337V104.553C53.8171 106.061 55.0351 107.283 56.5377 107.283ZM54.9053 101.337C54.9053 100.433 55.6361 99.6994 56.5377 99.6994H84.5869C85.4884 99.6994 86.2193 100.433 86.2193 101.337V104.543C86.2193 105.447 85.4884 106.181 84.5869 106.181H56.5377C55.6361 106.181 54.9053 105.447 54.9053 104.543V101.337Z" fill="#093F68"/>
<rect x="82.1982" y="114.311" width="32.4022" height="7.57319" rx="3.7866" transform="rotate(-180 82.1982 114.311)" fill="#3EE9E5"/>
<path fill-rule="evenodd" clip-rule="evenodd" d="M51.9725 114.857H80C81.5025 114.857 82.7206 113.634 82.7206 112.127V108.922C82.7206 107.414 81.5025 106.191 80 106.191H51.9725C50.47 106.191 49.2519 107.414 49.2519 108.922V112.127C49.2519 113.634 50.47 114.857 51.9725 114.857ZM50.3184 108.922C50.3184 108.017 51.0492 107.283 51.9507 107.283H80C80.9015 107.283 81.6323 108.017 81.6323 108.922V112.127C81.6323 113.031 80.9015 113.765 80 113.765H51.9507C51.0492 113.765 50.3184 113.031 50.3184 112.127V108.922Z" fill="#093F68"/>
<rect x="86.7634" y="121.889" width="32.4022" height="7.57319" rx="3.7866" transform="rotate(-180 86.7634 121.889)" fill="#3EE9E5"/>
<path fill-rule="evenodd" clip-rule="evenodd" d="M56.5377 122.435H84.5869C86.0895 122.435 87.3075 121.213 87.3075 119.705V116.495C87.3075 114.987 86.0895 113.765 84.5869 113.765H56.5377C55.0351 113.765 53.8171 114.987 53.8171 116.495V119.705C53.8171 121.213 55.0351 122.435 56.5377 122.435ZM54.9053 116.495C54.9053 115.59 55.6361 114.857 56.5377 114.857H84.5869C85.4884 114.857 86.2193 115.59 86.2193 116.495V119.705C86.2193 120.61 85.4884 121.343 84.5869 121.343H56.5377C55.6361 121.343 54.9053 120.61 54.9053 119.705V116.495Z" fill="#093F68"/>
<path d="M110.086 90.7456C111.974 91.6215 112.797 93.8602 111.926 95.7506L101.49 118.406C100.615 120.303 98.3665 121.13 96.4713 120.251C94.5832 119.375 93.76 117.137 94.6308 115.246L105.068 92.591C105.942 90.6935 108.191 89.8665 110.086 90.7456Z" fill="#3EE9E5"/>
<path fill-rule="evenodd" clip-rule="evenodd" d="M97.7001 121.42C98.0567 121.585 98.4447 121.671 98.8374 121.671C99.898 121.671 100.862 121.053 101.308 120.087L113.077 94.5396C113.38 93.8822 113.411 93.1307 113.162 92.4507C112.913 91.7707 112.405 91.2179 111.749 90.914L108.849 89.5709C108.194 89.2664 107.445 89.2358 106.768 89.4857C106.09 89.7355 105.539 90.2455 105.236 90.9031L93.4669 116.451C92.8388 117.819 93.4328 119.438 94.7946 120.071L97.7001 121.42ZM107.162 90.5209C107.336 90.4534 107.52 90.4182 107.706 90.4172C107.945 90.4105 108.183 90.4552 108.403 90.5482L111.303 91.8969C111.699 92.0785 112.006 92.4115 112.157 92.8216C112.307 93.2318 112.288 93.6851 112.103 94.0809L100.312 119.629C100.13 120.025 99.7977 120.332 99.3891 120.482C98.9804 120.632 98.5292 120.612 98.1354 120.426L95.2353 119.083C94.858 118.895 94.5675 118.568 94.4246 118.171C94.2717 117.765 94.2893 117.314 94.4735 116.921L106.243 91.3727C106.424 90.9775 106.755 90.671 107.162 90.5209Z" fill="#093F68"/>
<path d="M104.95 84.6036C106.741 85.6636 107.337 87.9731 106.282 89.7675L93.6496 111.262C92.5905 113.065 90.2689 113.664 88.4699 112.599C86.6787 111.539 86.0827 109.23 87.1374 107.435L99.77 85.9402C100.829 84.1381 103.151 83.539 104.95 84.6036Z" fill="#3EE9E5"/>
<path fill-rule="evenodd" clip-rule="evenodd" d="M89.5819 113.89C89.9992 114.136 90.4744 114.267 90.9585 114.267C91.9277 114.278 92.8293 113.77 93.3254 112.935L107.57 88.6918C107.938 88.0684 108.043 87.3241 107.864 86.6226C107.684 85.9211 107.234 85.32 106.613 84.9516L103.86 83.3136C103.238 82.9449 102.497 82.839 101.798 83.0192C101.099 83.1994 100.5 83.651 100.132 84.2745L85.8656 108.512C85.4986 109.136 85.3939 109.881 85.5746 110.582C85.7552 111.284 86.2064 111.885 86.8287 112.252L89.5819 113.89ZM102.053 84.078C102.186 84.0411 102.323 84.0227 102.461 84.0234C102.752 84.0244 103.038 84.1036 103.288 84.2527L106.041 85.8907C106.415 86.1114 106.685 86.4719 106.793 86.8928C106.901 87.3138 106.838 87.7606 106.618 88.1348L92.3678 112.378C92.1478 112.752 91.7886 113.024 91.3691 113.132C90.9497 113.241 90.5045 113.178 90.1315 112.957L87.3837 111.319C87.0105 111.098 86.74 110.737 86.6318 110.316C86.5237 109.896 86.5866 109.449 86.8069 109.074L101.052 84.8315C101.273 84.4568 101.633 84.1857 102.053 84.078Z" fill="#093F68"/>
<ellipse cx="73.6719" cy="108.239" rx="13.5812" ry="13.6285" fill="#3EE9E5"/>
<path fill-rule="evenodd" clip-rule="evenodd" d="M59.588 109.568C60.2823 116.858 66.3897 122.422 73.6882 122.413C75.4679 122.415 77.2314 122.076 78.8846 121.414C85.6694 118.715 89.2944 111.28 87.2537 104.248C85.213 97.2161 78.1765 92.8962 71.0084 94.2745C63.8403 95.6529 58.8937 102.277 59.588 109.568ZM60.7249 106.464C61.6154 99.968 67.1537 95.1324 73.6882 95.1456C78.0759 95.1545 82.1659 97.3739 84.5754 101.054C86.985 104.733 87.392 109.381 85.6588 113.426C83.0777 119.45 76.4567 122.632 70.1613 120.875C63.866 119.117 59.8345 112.96 60.7249 106.464Z" fill="#093F68"/>
<ellipse cx="73.6719" cy="108.239" rx="10.36" ry="10.3961" fill="#3EE9E5"/>
<path fill-rule="evenodd" clip-rule="evenodd" d="M62.9099 109.627C63.5915 115.075 68.1994 119.169 73.6719 119.187C77.2843 119.182 80.6606 117.385 82.6897 114.386C84.7188 111.387 85.1378 107.575 83.8088 104.204C81.773 99.1065 76.2816 96.3191 70.9833 97.6938C65.685 99.0685 62.2283 104.178 62.9099 109.627ZM64.3219 105.333C65.5826 101.212 69.3723 98.3964 73.6678 98.389C77.693 98.3941 81.3094 100.86 82.7968 104.613C84.3724 108.625 83.158 113.199 79.802 115.893C76.446 118.586 71.7325 118.769 68.1786 116.345C64.6248 113.921 63.0608 109.455 64.3219 105.333ZM73.6678 98.389C73.6692 98.389 73.6705 98.389 73.6719 98.389H73.661C73.6633 98.389 73.6655 98.389 73.6678 98.389Z" fill="#093F68"/>
<path fill-rule="evenodd" clip-rule="evenodd" d="M75.6471 116.511L75.1574 115.272C74.9875 115.29 74.8209 115.312 74.6562 115.333L74.6562 115.333C74.3356 115.375 74.0228 115.416 73.71 115.43C72.7863 115.495 71.8679 115.245 71.1037 114.72C70.4591 114.252 69.9684 113.602 69.6944 112.853L72.1049 111.892C72.4756 112.741 73.3675 113.236 74.2813 113.099L72.9809 109.822C72.7995 109.839 72.6181 109.856 72.4368 109.874C72.074 109.909 71.7113 109.944 71.3485 109.97C70.7658 110.031 70.177 109.947 69.6346 109.724C69.0573 109.478 68.5733 109.053 68.2525 108.512C67.8279 107.862 67.5923 107.105 67.5724 106.328C67.5404 105.204 68.0115 104.124 68.8565 103.385C69.2023 103.095 69.5658 102.827 69.9447 102.582L70.0753 102.495L69.4278 100.857L71.6804 99.956L71.7457 100.12C71.7904 100.233 71.8353 100.346 71.8802 100.459C72.0214 100.814 72.1619 101.167 72.2899 101.523C72.3334 101.643 72.3824 101.665 72.5021 101.643C73.3321 101.484 74.1885 101.535 74.9941 101.791C75.8463 102.069 76.5667 102.652 77.0182 103.429C77.106 103.568 77.1815 103.712 77.2596 103.862L77.2596 103.862C77.2977 103.935 77.3363 104.009 77.3774 104.084L74.9288 105.056C74.6421 104.376 73.9827 103.931 73.2475 103.92L74.4609 106.983L74.7493 106.94C75.4668 106.808 76.197 106.758 76.9257 106.792C78.0219 106.82 79.0144 107.449 79.5103 108.43C80.4691 110.085 80.1042 112.193 78.6451 113.426C78.3857 113.653 78.1066 113.859 77.8194 114.07L77.8194 114.07C77.679 114.173 77.5366 114.278 77.3937 114.387L77.8671 115.583L75.6471 116.511ZM75.4457 109.38L76.5721 112.23C76.9168 112.032 77.2009 111.743 77.3937 111.395C77.5934 111.031 77.6144 110.594 77.4506 110.212C77.2869 109.83 76.9567 109.545 76.5557 109.44C76.1835 109.4 75.8093 109.38 75.4349 109.38H75.4457ZM70.9241 104.613L72.0124 107.344C71.8897 107.344 71.7702 107.348 71.653 107.353C71.4634 107.361 71.2798 107.368 71.0982 107.354C70.6748 107.282 70.3159 107.001 70.1428 106.606C69.9698 106.212 70.0058 105.757 70.2385 105.394C70.4515 105.121 70.6805 104.86 70.9241 104.613Z" fill="#093F68"/>
</svg>

<svg xmlns="http://www.w3.org/2000/svg" fill="none" viewBox="0 0 160 164"><rect width="160" height="164" fill="#093F68" rx="45"/><path fill="#080C20" d="M113.262 62.74c-3.227-3.986-10.034-4.205-11.873-10.145-1.839-5.94-1.306-8.458-1.306-8.458H59.917s.544 2.512-1.306 8.458-8.646 6.154-11.873 10.145c-2.856 3.538-2.856 8.763-2.856 14.3v36.741c0 5.946 2.753 12.198 9.293 12.198h53.65c6.529 0 9.294-6.252 9.294-12.198V77.04c0-5.537 0-10.762-2.857-14.3Z"/><path fill="#093F68" fill-rule="evenodd" d="M53.175 126.525h53.65c6.796 0 9.838-6.405 9.892-12.738V77.045c0-5.635 0-10.958-2.976-14.644-1.375-1.695-3.351-2.737-5.263-3.746l-.01-.005c-2.84-1.485-5.501-2.888-6.529-6.213-1.758-5.695-1.29-8.19-1.29-8.19a.547.547 0 0 0-.114-.46.544.544 0 0 0-.419-.201H59.949a.543.543 0 0 0-.544.655v.002c.015.082.45 2.563-1.29 8.188-1.05 3.325-3.71 4.729-6.529 6.214l-.136.072c-1.872.998-3.792 2.02-5.136 3.679-2.977 3.685-2.977 9.009-2.977 14.644v36.741c0 6.339 3.042 12.744 9.838 12.744Zm5.958-73.772c1.355-4.379 1.447-6.95 1.388-8.07h38.991c-.06 1.12.033 3.702 1.388 8.07 1.163 3.76 4.146 5.332 7.034 6.855l.006.003c1.899 1 3.7 1.95 4.93 3.473 2.721 3.385 2.721 8.496 2.721 13.956v36.741c0 5.799-2.705 11.652-8.75 11.652h-53.65c-6.029 0-8.75-5.853-8.75-11.652V77.04c0-5.438 0-10.57 2.721-13.956 1.23-1.524 3.031-2.474 4.93-3.473l.007-.003c2.887-1.523 5.87-3.096 7.034-6.855Z" clip-rule="evenodd"/><path fill="#093F68" fill-rule="evenodd" d="M53.175 123.249h53.65c6.304 0 6.567-8.266 6.604-9.444l.002-.046V77.018c0-5.018 0-9.774-2.248-12.558-.952-1.174-2.557-2.02-4.26-2.916l-.116-.062c-2.95-1.577-6.573-3.514-7.986-8.079a42.37 42.37 0 0 1-1.355-7.147.545.545 0 0 0-.544-.48h-33.79a.545.545 0 0 0-.544.48 42.368 42.368 0 0 1-1.376 7.169c-1.431 4.625-5.131 6.574-8.108 8.14l-.002.002c-1.697.895-3.301 1.741-4.253 2.915-2.247 2.762-2.247 7.518-2.247 12.558v36.741c0 .966.18 9.468 6.573 9.468Zm9.076-69.524a41.832 41.832 0 0 0 1.338-6.858h32.822c.254 2.32.702 4.614 1.338 6.858 1.567 5.056 5.485 7.148 8.641 8.785 1.594.841 3.101 1.639 3.912 2.638 2.008 2.484 2.008 7.054 2.008 11.892v36.741c0 .857-.153 8.376-5.485 8.376h-53.65c-5.332 0-5.485-7.519-5.485-8.376V77.04c0-4.838 0-9.408 2.008-11.892.81-1 2.318-1.797 3.918-2.637l.122-.066c3.129-1.675 6.966-3.729 8.513-8.72Z" clip-rule="evenodd"/><path fill="#080C20" d="M56.402 38.808h47.196a4.22 4.22 0 0 1 4.212 4.226v2.73c0 .624-.247 1.223-.687 1.664a2.34 2.34 0 0 1-1.658.69h-50.93a2.34 2.34 0 0 1-1.658-.69 2.357 2.357 0 0 1-.687-1.664v-2.73a4.219 4.219 0 0 1 4.212-4.226Z"/><path fill="#093F68" fill-rule="evenodd" d="M54.535 48.68h50.93a2.895 2.895 0 0 0 2.889-2.9v-2.73c-.003-2.634-2.13-4.768-4.756-4.771H56.402c-2.626.002-4.753 2.137-4.756 4.772v2.73c0 1.6 1.294 2.899 2.89 2.899Zm-.727-8.248a3.66 3.66 0 0 1 2.594-1.078h47.196a3.674 3.674 0 0 1 3.668 3.68v2.73c0 .998-.807 1.808-1.801 1.808h-50.93c-.994 0-1.8-.81-1.8-1.808v-2.73c0-.976.386-1.912 1.073-2.602Z" clip-rule="evenodd"/><rect width="32.402" height="7.573" x="55.368" y="83.996" fill="#3EE9E5" rx="3.787"/><path fill="#093F68" fill-rule="evenodd" d="M57.544 92.115h28.05a2.725 2.725 0 0 0 2.72-2.73V86.18a2.725 2.725 0 0 0-2.72-2.73h-28.05a2.725 2.725 0 0 0-2.72 2.73v3.205a2.725 2.725 0 0 0 2.72 2.73Zm-1.632-5.935c0-.905.73-1.638 1.632-1.638h28.05c.901 0 1.632.733 1.632 1.638v3.205c0 .905-.731 1.638-1.632 1.638h-28.05a1.635 1.635 0 0 1-1.632-1.638V86.18Z" clip-rule="evenodd"/><rect width="32.402" height="7.573" x="58.692" y="91.569" fill="#3EE9E5" rx="3.787"/><path fill="#093F68" fill-rule="evenodd" d="M60.869 99.7h28.05c.72 0 1.413-.288 1.923-.8s.797-1.207.797-1.93v-3.211a2.725 2.725 0 0 0-2.72-2.73h-28.05a2.725 2.725 0 0 0-2.72 2.73v3.21a2.725 2.725 0 0 0 2.72 2.73Zm-1.633-5.941c0-.905.731-1.638 1.633-1.638h28.05c.9 0 1.631.733 1.631 1.638v3.21c0 .905-.73 1.638-1.632 1.638h-28.05a1.635 1.635 0 0 1-1.632-1.638v-3.21Z" clip-rule="evenodd"/><rect width="32.402" height="7.573" x="86.763" y="106.737" fill="#3EE9E5" rx="3.787" transform="rotate(-180 86.763 106.737)"/><path fill="#093F68" fill-rule="evenodd" d="M56.538 107.283h28.049a2.713 2.713 0 0 0 1.927-.803c.511-.514.796-1.212.794-1.937v-3.206a2.725 2.725 0 0 0-2.721-2.73h-28.05a2.725 2.725 0 0 0-2.72 2.73v3.216a2.725 2.725 0 0 0 2.72 2.73Zm-1.633-5.946c0-.904.731-1.638 1.633-1.638h28.049c.901 0 1.632.734 1.632 1.638v3.206c0 .904-.73 1.638-1.632 1.638h-28.05a1.636 1.636 0 0 1-1.632-1.638v-3.206Z" clip-rule="evenodd"/><rect width="32.402" height="7.573" x="82.198" y="114.311" fill="#3EE9E5" rx="3.787" transform="rotate(-180 82.198 114.311)"/><path fill="#093F68" fill-rule="evenodd" d="M51.972 114.857H80a2.726 2.726 0 0 0 2.72-2.73v-3.205a2.726 2.726 0 0 0-2.72-2.731H51.972a2.726 2.726 0 0 0-2.72 2.731v3.205a2.726 2.726 0 0 0 2.72 2.73Zm-1.654-5.935c0-.905.731-1.639 1.633-1.639H80c.901 0 1.632.734 1.632 1.639v3.205c0 .904-.73 1.638-1.632 1.638H51.95a1.636 1.636 0 0 1-1.632-1.638v-3.205Z" clip-rule="evenodd"/><rect width="32.402" height="7.573" x="86.763" y="121.889" fill="#3EE9E5" rx="3.787" transform="rotate(-180 86.763 121.889)"/><path fill="#093F68" fill-rule="evenodd" d="M56.538 122.435h28.049a2.725 2.725 0 0 0 2.72-2.73v-3.21a2.725 2.725 0 0 0-2.72-2.73h-28.05a2.725 2.725 0 0 0-2.72 2.73v3.21a2.725 2.725 0 0 0 2.72 2.73Zm-1.633-5.94c0-.905.731-1.638 1.633-1.638h28.049c.901 0 1.632.733 1.632 1.638v3.21c0 .905-.73 1.638-1.632 1.638h-28.05a1.635 1.635 0 0 1-1.632-1.638v-3.21Z" clip-rule="evenodd"/><path fill="#3EE9E5" d="M110.086 90.746a3.776 3.776 0 0 1 1.84 5.005l-10.436 22.655a3.777 3.777 0 0 1-6.86-3.16l10.438-22.655a3.776 3.776 0 0 1 5.018-1.845Z"/><path fill="#093F68" fill-rule="evenodd" d="M97.7 121.42c.357.165.745.251 1.137.251 1.061 0 2.025-.618 2.471-1.584l11.769-25.547a2.74 2.74 0 0 0 .085-2.09 2.725 2.725 0 0 0-1.413-1.536l-2.9-1.343a2.71 2.71 0 0 0-2.081-.085c-.678.25-1.229.76-1.532 1.417l-11.77 25.548a2.734 2.734 0 0 0 1.329 3.62l2.905 1.349Zm9.462-30.9c.174-.067.358-.102.544-.103a1.67 1.67 0 0 1 .697.131l2.9 1.349a1.64 1.64 0 0 1 .8 2.184l-11.791 25.548a1.637 1.637 0 0 1-.923.853c-.409.15-.86.13-1.254-.056l-2.9-1.343a1.64 1.64 0 0 1-.81-.912 1.61 1.61 0 0 1 .049-1.25l11.769-25.548c.181-.395.512-.702.919-.852Z" clip-rule="evenodd"/><path fill="#3EE9E5" d="M104.95 84.604a3.776 3.776 0 0 1 1.332 5.163L93.65 111.263a3.776 3.776 0 1 1-6.513-3.827L99.77 85.94a3.777 3.777 0 0 1 5.18-1.336Z"/><path fill="#093F68" fill-rule="evenodd" d="M89.582 113.89c.417.246.892.377 1.377.377.969.011 1.87-.497 2.366-1.332l14.245-24.243a2.732 2.732 0 0 0-.957-3.74l-2.753-1.638a2.713 2.713 0 0 0-3.728.96l-14.266 24.238a2.737 2.737 0 0 0 .963 3.74l2.753 1.638Zm12.471-29.812c.133-.037.27-.055.408-.055.291.001.577.08.827.23l2.753 1.638a1.645 1.645 0 0 1 .577 2.244l-14.25 24.243a1.632 1.632 0 0 1-2.236.579l-2.748-1.638a1.64 1.64 0 0 1-.577-2.245l14.245-24.242a1.634 1.634 0 0 1 1.001-.754Z" clip-rule="evenodd"/><ellipse cx="73.672" cy="108.239" fill="#3EE9E5" rx="13.581" ry="13.629"/><path fill="#093F68" fill-rule="evenodd" d="M59.588 109.568c.694 7.29 6.802 12.854 14.1 12.845 1.78.002 3.543-.337 5.197-.999 6.784-2.699 10.41-10.134 8.369-17.166-2.041-7.032-9.078-11.352-16.246-9.974-7.168 1.379-12.114 8.003-11.42 15.294Zm1.137-3.104c.89-6.496 6.429-11.332 12.963-11.318a13.047 13.047 0 0 1 10.887 5.908 13.142 13.142 0 0 1 1.084 12.372c-2.581 6.024-9.202 9.206-15.498 7.449-6.295-1.758-10.327-7.915-9.436-14.411Z" clip-rule="evenodd"/><ellipse cx="73.672" cy="108.239" fill="#3EE9E5" rx="10.36" ry="10.396"/><path fill="#093F68" fill-rule="evenodd" d="M62.91 109.627c.682 5.448 5.29 9.542 10.762 9.56a10.907 10.907 0 0 0 9.018-4.801 10.985 10.985 0 0 0 1.119-10.182c-2.036-5.097-7.527-7.885-12.826-6.51-5.298 1.374-8.755 6.484-8.073 11.933Zm1.412-4.294a9.798 9.798 0 0 1 9.346-6.944 9.839 9.839 0 0 1 9.129 6.224 9.851 9.851 0 0 1-2.995 11.28 9.768 9.768 0 0 1-11.623.452 9.846 9.846 0 0 1-3.857-11.012Zm9.346-6.944h.004-.011.007Z" clip-rule="evenodd"/><path fill="#093F68" fill-rule="evenodd" d="m75.647 116.511-.49-1.239c-.17.018-.336.04-.5.061-.321.042-.634.083-.947.097a4.094 4.094 0 0 1-2.606-.71 4.009 4.009 0 0 1-1.41-1.867l2.41-.961a2.045 2.045 0 0 0 2.177 1.207l-1.3-3.277a99.09 99.09 0 0 0-.544.052c-.363.035-.726.07-1.088.096a3.538 3.538 0 0 1-1.714-.246 2.955 2.955 0 0 1-1.383-1.212 4.192 4.192 0 0 1-.68-2.184 3.768 3.768 0 0 1 1.284-2.943c.346-.29.71-.558 1.089-.803l.13-.087-.647-1.638 2.252-.901.066.164.134.339c.141.355.282.708.41 1.064.043.12.092.142.212.12a5.075 5.075 0 0 1 2.492.148 3.651 3.651 0 0 1 2.024 1.638c.088.139.163.283.242.433.038.073.076.147.117.222l-2.448.972a1.855 1.855 0 0 0-1.681-1.136l1.213 3.063.288-.043a9.565 9.565 0 0 1 2.177-.148 2.982 2.982 0 0 1 2.584 1.638 3.952 3.952 0 0 1-.865 4.996c-.26.227-.538.433-.826.644-.14.103-.282.208-.425.317l.473 1.196-2.22.928Zm-.201-7.131 1.126 2.85c.345-.198.629-.487.822-.835a1.353 1.353 0 0 0-.838-1.955 10.49 10.49 0 0 0-1.121-.06h.01Zm-4.522-4.767 1.088 2.731c-.122 0-.242.004-.359.009a4.67 4.67 0 0 1-.555.001 1.278 1.278 0 0 1-.955-.748 1.287 1.287 0 0 1 .096-1.212c.212-.273.441-.534.685-.781Z" clip-rule="evenodd"/></svg>
